symbols/web/mms/materialsymbolsrounded/mms_wght500gradN25fill1_48px.svg

<svg xmlns="http://www.w3.org/2000/svg" height="48" width="48"><path d="M14.3 28H34q.55 0 .775-.45.225-.45-.075-.9l-5.55-7.25q-.25-.3-.65-.3t-.65.3l-5.6 7.4-3.9-4.7q-.25-.35-.65-.35t-.65.35l-3.4 4.55q-.35.45-.125.9.225.45.775.45ZM3.95 40V7.2q0-1.25.975-2.275T7.25 3.9h33.5q1.3 0 2.3 1.025 1 1.025 1 2.275v25.6q0 1.25-1 2.25t-2.3 1H11.8l-5.1 5.1q-.75.8-1.75.375-1-.425-1-1.525Z"/></svg>

<svg xmlns="http://www.w3.org/2000/svg" height="48" width="48"><path d="M14.3 28H34Q34.55 28 34.775 27.55Q35 27.1 34.7 26.65L29.15 19.4Q28.9 19.1 28.5 19.1Q28.1 19.1 27.85 19.4L22.25 26.8L18.35 22.1Q18.1 21.75 17.7 21.75Q17.3 21.75 17.05 22.1L13.65 26.65Q13.3 27.1 13.525 27.55Q13.75 28 14.3 28ZM3.95 40V7.2Q3.95 5.95 4.925 4.925Q5.9 3.9 7.25 3.9H40.75Q42.05 3.9 43.05 4.925Q44.05 5.95 44.05 7.2V32.8Q44.05 34.05 43.05 35.05Q42.05 36.05 40.75 36.05H11.8L6.7 41.15Q5.95 41.95 4.95 41.525Q3.95 41.1 3.95 40Z"/></svg>
